X:1
T:Title
%%score [ 1 { 2 | 3 } 4 5 ]
L:1/8
Q:1/4=120
M:2/2
K:G
V:1 treble nm="Midi_1"
V:2 treble nm="A."
V:3 treble 
V:4 treble nm="T."
V:5 treble nm="B."
V:1
"^Psalm 89: 13-14" G4 d2 f2 | g2 z f eA"^Coronation Anthem II"ag | %2
w: ||
 f3"^Let thy hand be strengthened" e dGg"^1"f | eFGd c3 B | Bd G2- GG/A<AG/4A/4 | %5
w: |||
 B"^George Frideric Handel""^(1685-1759)"d G2- GG/A<AG/4A/4 | BB/c<cB/4c/4 dB/c<cB/4c/4 | %7
w: ||
 dGBd gdbg | a^cdf gBcg | fa d2- dd/e<ed/4e/4 | fa d2- dd/e<ed/4e/4 | ff/g<gf/4g/4 aa/b<ba/4b/4 | %12
w: |||||
 c'cBA Bbag | aAGF z BAG | z cBA d2 f2 | g3 f eAag | f3 e dGFc | B2 AG F3 G | GBAG z cBA | %19
w: |||||||
 z dcB z agf | g2 G2- GG/A<AG/4A/4 | Bd G2- GG/A<AG/4A/4 || BG c2- c2 Bc | AFGc B2 A>G | G2 z2 z4 | %25
w: ||||||
 z8 | z4 G2 B2 | d3 c BE ed | ^c>B A2 z4 | z8 | z4 d2 B2 | e3 d"^- 2 -" cB Ac | d3 c BA GB | %33
w: |Let thy|hand be strength * * *|* en- ed,||and thy|right hand be * ex *|al * * * * *|
 g3 f e2 d2 |"^__" c2 B2 d3 c | B^c d4 c2 | d2 z2 z2 d^c | d2 d2 z2 d^c | d2 d2 z2 d^c | %39
w: |* ted, be ex-|alt * * *|ed, let thy|right hand be ex-|alt- ed, be ex-|
 !wedge!d4 !wedge!^c4 | !wedge!d4 !wedge!e4 | d2 A2 d3 d | ^cA dd d2"^[   ]" Tc2 | d2 ba bdcB | %44
w: alt *||* ed, let thy|right hand be ex- alt *|ed. * * * * * *|
 cc'ba bBAG | AFGA d2 f2 | g3 f"^- 3 -" e3 d/e/ | fe d2 B2 G2 | c2 A2 d3 c | BG Bd g3 d | %50
w: |* * * * Let thy|hand be strength * *|* * en'd, and thy|right hand be ex-|alt * * * * *|
 BG Bd g3 d | BG Bd e3 d | ^cA ce f3 e | ^dB df g3 f | e^d e2- eg fe | ^d2 B2 z4 | z4 e2 ^c2 | %57
w: |* * ed, * let thy|hand * be * strength *|||* en'd,|and thy|
 f2 d2 g3 f | e^d e4"^- 4 -" d2 | e2 c>B c4- | c2 BA B2 d2 | g2 G2 G2 g2 | f2 d2 B2 G2 | %63
w: right hand be ex-|alt * * *|ed, ex * alt|* ed, * let thy|hand be strength *|* en'd, and thy|
 c3 B A2 d2 | B2 G2 z2 cc | B2 B2 z2 cc | B2 B2 z2 cc | B4 c4 | d4 e3 f | g2 d2 d2 c2 | %70
w: right hand be ex-|alt- ed, let thy|right hand be ex-|alt- ed, be ex-|alt *||* ed, let thy|
 c2 B2 e3 a | f2 g2 c3 c | c2"^- 5 -" B2"^[   ]" TA4 | B4 d2 f2 | g3 f eAag | f3 e dGFc | %76
w: right hand * *|* * be ex-|alt * *|ed. * *|||
 B2 AG F3 G | GBAG z cBA | z dcB z agf | g2 G2 GG/A<AG/4A/4 | Bd G2- GG/A<AG/4A/4 | BG c4 Bc | %82
w: ||||||
 AG/F/Gc B2 A>G | G8 |][M:3/4] x6 |[M:3/4]"^Larghetto" G4 B2 | c2 c2 c2 | c2 B2 f2 | f2 B2 b2 | %89
w: |||||||
 b2 e2 d2 | =f2"^- 6 -""^2" f2 e2 | c2 B4- | Bc A3 B | e2 ^d2 e2 | e2 ^d2 c2 | c2 B2 G2 | %96
w: |||||||
 G2 F2 g2 | g2 f2 z2 | z6 | z6 | z6 | z6 | z6 | z6 | z6 | z2 z2 B2 | c2 c2 c2 | c2 B2 B2 | %108
w: |||||||||Let|jus- tice and|judg- ment, let|
 f2 f2 f2 | f2 e2 z2 | z2 z2 e2 | e2 ^d2 z2 | B2 e4 | e2 d4 | d2 B2 e2 | c2 B4 | B2"^[   ]" TA4 | %117
w: jus- tice and|judg- ment,|and|judg- ment|be the|pre- pa-|ra * *|* tion|of thy|
 B4 z2 | z6 |"^- 7 -" z6 | z6 | z2 z2 e2 | e2 ^d2 e2 | e2 ^d2 z2 | c4 z2 | B4 B2 | A2 A4 | B4 d2 | %128
w: seat!||||Let|mer- cy and|truth *|go,|go be-|fore thy|face, let|
 d2 ^c2 z2 | z2 z2 ^c2 | ^c2 B2 B2 | B2 ^A2 d2- | d2 c2 B2 | ^A2 B4- | B^c"^[   ]" T^A4 | B4 z2 | %136
w: mer- cy,|let|mer- cy and|truth * go|* * be-|fore *|* * thy|face.|
 z6 | z2 z2 B2 |"^- 8 -" c2 c2 c2 | B2 B2 B2 | e2 e2 e2 | e2 d2 d2- |"^__" d2 c4 | c2 B2 B2- | %144
w: |Let|jus- tice and|judg- ment, let|jus- tice and|judg- ment be|* the|pre- pa- ra|
 Bc"^[   ]" TA3 B | B4 e2 | e2 ^d2 g2 | g2 f2 d2 | d2 d2 z2 | c2 B2 z2 | e2 A2 z2 | f4 e2- | %152
w: * tion of thy|seat! *||* * Let|jus- tice,|judg- ment,|mer- cy,|truth, go|
 ef"^[   ]" T^d3 e | e6 | c2 c2 c2 | c2 B2 f2 | f2 B2 b2 | b2 e2 d2 | c2 B2 B2 | e2 A2 z2 | %160
w: * be- fore thy|face!|||||||
 f2 B2 G2- | GF F3 E | E6 |][M:4/4] x8 |[M:4/4] G4 d3 d | B2 G2 A2 B2 | c2"^- 9 -" c4 B2 | %167
w: ||||* Al- le-|lu- ia,~al- le- lu-|ia, * al-|
"^3""^[   ]" TA3 A G2 B2 | c2 d2 G2 c2 | BFGA B2 e2- | e2 d2 d2 ^c2 | dABF GBAG | F2 d2 c2 A2 | %173
w: le- lu- ia, *|||* al- le- lu-|ia, * * * * * * *|* al- le- lu-|
 BG e4 d2 | gB c4 B2 | e3 d cBAG | F2 d2"^[   ]" Tc3 c | B2 e2 z2 d2 | ^c2 f2 z2 e2 | %179
w: ia, * * *|||* al- le- lu-|ia, * *||
 ^d2 g2 z fe"^- 10 -"d | e2 E2 e3 e | ^d2 f2"^[   ]" Td3 d | e4 z4 | z2 ed cBAG | F2 e2 e2 d2 | %185
w: |* al- le- lu-|ia, al- le- lu-|ia,|al * le * lu *|ia, al- le- lu-|
 d2 c2 B3 d | ^cA d4 =c2- | c2 B2 ^c2 d2 | B2 dc BAGF | E2 A2 B2 G2 | d3 c B2 d2 | G2 AB c4- | %192
w: ia, * * *||||* al- le- lu-|ia, * * *||
"^- 11 -" c2 BA B2 d2 | e2 A2 d2 d2 | d2"^[   ]" T^c2 d4 | z8 | z8 | z4 d3 d | c2 A2 B2 ^c2 | %199
w: * al * le- lu-|ia, * * al-|le- lu- ia,|||al- le-|lu- ia,~al- le- lu-|
 d2 F2 G2 A2 | z2 d2 e2 f2 | g4 T=f4 | e2 e4 d2- | d2 ^c2 d3 =c |"^__" B2 gf edcB | %205
w: ia, * * *|||* al- le|* lu- ia, *|* al * le * lu *|
 A2 d2-"^- 12 -" dG c2- | c2 B2"^[   ]" TA3 A | G2 B2 c2 d2 |"^___" G2 G2 c4- | c2 A2 fedc | %210
w: ia, * * * *|* al- le- lu-|ia, * * *|* al- le|* lu- ia, * * *|
 B2 gf edcB | A2 d4 c2- | c2 B2 AB c2 | !fermata!c4 z2"^Adagio" B2 |"^[   ]" TA6 A2 | B16 |] %216
w: ||* al- le * lu-|ia, al-|le- lu-|ia.|
V:2
[K:C] z8 | z8 | z8 | z8 | z8 | z8 |[M:4/4] z8 | z8 | z8 | z8 | z8 |[M:4/4] z8 | z8 | z8 | z8 | z8 | %16
w: ||||||||||||||||
 z8 |[M:4/4] z8 | z8 | z8 | z8 | z8 ||[K:G][M:4/4][K:treble] z8 | z8 | z4 D2 F2 | G3 F EA, AG | %26
w: ||||||||Let thy|hand be strength * * *|
"^__" F>E D2 z4 | z8 | z4 A2 F2 | B3 A GF EG | A3 G F2 G2 | z8 | z4 D2 B,2 | E3 D EF G2 | %34
w: * en- ed,||and thy|right hand be * ex *|al * * ted,||let thy|right hand be * ex-|
 F2 G2 A3 A | B2 A2 G4 | A2 z2 z2 GG | F2 F2 z2 GG | F2 F2 z2 BA | !wedge!A4 !wedge!G4 | %40
w: al- ted, be ex-|alt * *|ed, let thy|right hand be ex-|alt- ed, be ex-|alt *|
 !wedge!A4 !wedge!A4 | A2 A2 A2 G2 | GA AB A4 | A2 z2 z4 | z8 | z4 F2 A2 | G3 G A4- | A2 A2 G2 G2 | %48
w: |* ed, let thy|right hand be ex- alt-|ed.||Let thy|hand be strength|* en'd, and thy|
 A2 E2 AG FA | G2 D2 z2 G2 | G2 D2 z2 G2 | G2 D2 G2 B2 | E3 E A3 G | F2 B,2 B4- | B2 AG A2 A2 | %55
w: right hand be * ex *|alt- ed, ex-|alt- ed, ex-|alt- ed, let thy|hand be strength *||* * * * en'd,|
 F2 ^D2 B3 A | ^GF EG A3 =G | F2 A2 B3 A | G2 A2 F4 | G2 E2 A3 G | F2 D2 G2 A2 | B3 A G2 A2- | %62
w: and thy right hand|be * ex * alt *|||ed, ex- alt *|* ed, let thy|hand be strength *|
 A2 F2 D2 G2 | A3 E AG FA | G2 G2 z2 GF | G2 G2 z2 GF | G2 G2 z2 GF | G4 F4 | B4 A4 | B2 A2 G2 G2 | %70
w: * en'd, and thy|right hand be * ex *|alt- ed, let thy|right hand be ex-|alt- ed, be ex-|alt *||* ed, let thy|
 F2 G2 z4 | z4 G3 E | A2 G2- G2 F2 | G4 z4 | z8 | z8 |[M:4/4] z8 | z8 | z8 | z8 |[M:4/4] z8 | z8 | %82
w: right hand|be ex-|alt * * *|ed.|||||||||
 z8 | z8 |] z6 |[M:3/4] z6 | z6 | z6 | z6 | z6 | z6 | z6 | z6 | z6 | z6 | z6 | z6 |[M:3/4] z6 | %98
w: ||||||||||||||||
 z6 | z6 | z6 | z2 z2 E2 | G2 G2 G2 | G2 F2 B2- | Bc A3 A | AB"^[   ]" T^G3 G | A4 !courtesy!=G2 | %107
w: |||Let|jus- tice and|judg- ment be|* the pre- pa-|ra- tion of thy|seat! Let|
 F2 F2 z2 | z2 z2 B2 | B2 B2 E2 | A2 A2 A2 | A2 A2 A2- | A2 G4 | F2 B4 | E6- | E2 G2 B2 | E4 E2 | %117
w: jus- tice|and|judg- ment, let|jus- tice and|judg- ment be|* the|pre- pa-|ra|* * tion|of thy|
 F4 z2 | z6 | z2 z2 E2 | E2 ^D2 G2 | G2 F2 z2 | z6 | z2 z2 B2- | B4 A2- | A4 G2 | G4 F2 | G4 B2 | %128
w: seat!||Let|mer- cy and|truth *||go,|* go|* be-|fore thy|face, let|
 B2 ^A2 z2 | z6 | z2 z2 F2 | F4 z2 | E4 ^E2 | F2 G4 | F4 F2 | F4 B2 | B2 A2 A2 | A2 ^G2 G2 | %138
w: mer- cy||and|truth|go be-|fore *|* thy|face. Let|jus- tice and|judg- ment, let|
 A2 E2 F2 | G2 G2 z2 | B4 B2 | A4 A2 | G3 A GA | F4 F2 | E2 E4 | F4 z2 | z6 | z2 z2 F2 | B2 B2 z2 | %149
w: jus- tice and|judg- ment|be the|pre- pa-|ra * * *|* tion|of thy|seat!||Let|jus- tice,|
 A2 F2 z2 | E2 E2 z2 | A4 G2 | A2 F3 B | G6 |[M:3/4] z6 | z6 | z6 | z6 | z6 | z6 | z6 | z6 | z6 |] %163
w: judg- ment,|mer- cy,|truth, go|be- fore thy|face!||||||||||
 z8 |[M:4/4] z8 | G3 G F2 D2 | E2 F2 GD G2 | G2 F2 G2 z2 | z8 | z2 D2 G4- | G2 F2"^[   ]" TE3 E | %171
w: ||Al- le- lu- ia,~al-|le- lu- ia, * al-|le- lu- ia,||al- le|* * * lu-|
 FABF GBAG | F2 G2 G2 F2 | G2 G2 F4 | z2 E2 D4 | z2 E2 A3 A | A2 G2 G2 F2 | G2 B2 z2 B2 | %178
w: ia, * * * * * * *|* al- le- lu-|ia, * *||al- le- lu-|ia, al- le- lu-|ia * *|
 A4 z2 F2 | F2 B2 z2 B2- | B2 AG A3 A | A2 Bc BAGF | E2 B4 ^G2 | A2 E2 A4- | A2 G2 F3 F | %185
w: ||* al * le- lu-|ia, * * * * * *|* * al-|le- lu- ia,|* al- le- lu-|
 ^G2 A4 =G2- | G2 F2 E3 G | FD G4 F2 | B3 A GFED | ^C2 A2 G3 G | F3 A BAGF | E4 A4 | F4 z4 | z8 | %194
w: ia, * *||||* al- le- lu-|ia, * * * * *||||
 G3 G F2 D2 | E2 F2 G2 G2- | G2 F2"^[   ]" TE3 D | D6 F2 | G2 A2 D2 G2 | A2 F2 G2 A2 | z2 G4 A2 | %201
w: al- le- lu- ia,~al-|le- lu- ia, *|* al- le- lu-|ia, al-|le- lu- ia, *|||
 D2 E2 A2 =F2 | G2 G2 G3 G | A2 G2 A2 F2 |"^__" G2 D2 G3 G | F4 z4 | z8 | G3 G F2 D2 | E4 A4 | %209
w: |* al- le- lu-|ia, * * *|* al- le- lu-|ia,||al- le- lu- ia,~al-|le- lu-|
"^__________________________________________" A8 | G8 | F2 B2 E2 A2 | D2 G2 A3 G | %213
w: ia,|||* al- le- lu-|
 !fermata!F4 z2 G2 | G4 F4 | G16 |] %216
w: ia, al-|le- lu-|ia.|
V:3
[K:C] x8 | x8 | x8 | x8 | x8 | x8 |[M:4/4] x8 | x8 | x8 | x8 | x8 |[M:4/4] x8 | x8 | x8 | x8 | x8 | %16
w: ||||||||||||||||
 x8 |[M:4/4] x8 | x8 | x8 | x8 | x8 ||[K:G][M:4/4][K:treble] z8 | z8 | z4 D2 F2 | G3 F EA, AG | %26
w: ||||||||Let thy|hand be strength * * *|
"^__" F>E D2 z4 | F2 D2 G2 z2 | z2 E2 D2 D2 | z8 | z8 | B,2 G,2 ED CB, | A,3 D D2 D2 | z4 G2 B,2 | %34
w: * en- ed,|let thy hand|be strength- en'd,|||and thy right * hand *|be ex- al- ted,|be ex-|
 C2 D2 D3 D | G2 D2 E4 | F2 z2 z2 EE | F2 F2 z2 EE | F2 F2 z2 EE | !wedge!F4 !wedge!G4 | %40
w: al- ted, be ex-|alt * *|ed, let thy|right hand be ex-|alt- ed, be ex-|alt *|
 !wedge!F4 !wedge!E4 | F2 E2 F2 G2 | GG FG E4 | F2 z2 z4 | z8 | z4 F2 F2 | D3 D EA, AG | %47
w: |* ed, let thy|right hand be ex- alt-|ed.||Let thy|hand be strength * * *|
 F2 F2 D2 E2 | E2 C2 D3 D | D2 B,2 z2 D2 | D2 B,2 z2 D2 | D2 B,2 B,2 E2 | E3 ^C C2 F2- | %53
w: * en'd, and thy|right hand be ex-|alt- ed, ex-|alt- ed, ex-|alt- ed, let thy|hand be strength *|
 F2 ^D2 B,2 D2 | E3 G F4- | F2 F2 F2 ^D2 | E2 E2 E2 A2 | A2 F2 G4- | G2 F2 F4 | E2 z2 z4 | %60
w: ||* en'd, and thy|right hand be ex-|alt * *||ed,|
 z4 D2 D2 | D2 ^C2 D2 E2 | F2 F2 G2 G2 | E3 E F2 AD | D2 G2 z2 ED | D2 G2 z2 ED | D2 G2 z2 GF | %67
w: let thy|hand be strength *|* en'd, and thy|right hand be ex *|alt- ed, let thy|right hand be ex-|alt- ed, be ex-|
 D4 A4 | G4 F4 | D2 D2 E2 E2 | F2 D2 z4 | z4 E3 E | D8 | D4 z4 | z8 | z8 |[M:4/4] x8 | x8 | x8 | %79
w: alt *||* ed, let thy|right hand|be ex-|alt-|ed.||||||
 x8 |[M:4/4] x8 | x8 | x8 | x8 |] x6 |[M:3/4] x6 | x6 | x6 | x6 | x6 | x6 | x6 | x6 | x6 | x6 | %95
w: ||||||||||||||||
 x6 | x6 |[M:3/4] z2 z2 B,2 | C2 C2 C2 | CB, B,2 E2- | E2 D4 | C4 C2 | B,4 E2- | E2 ^D4 | E4 C2 | %105
w: ||Let|jus- tice and|judg * ment be|* the|pre- pa-|ra *|* tion|of thy|
 B,4 z2 | z2 z2 G2 | F2 F2 z2 | z2 z2 F2 | B,2 E2 z2 | z2 z2 E2 | A,2 F2 z2 | z6 | z6 | E2 B,2 z2 | %115
w: seat!|Let|jus- tice|and|judg- ment,|and|judg- ment|||be the|
 A2 G2 F2 | E^D E3 E | ^D4 z2 | z6 | z6 | z6 | z2 z2 B,2 | B,2 A,2 G2 | G2 F2 z2 | G4 z2 | F4 G2 | %126
w: pre * pa-|ra- tion of thy|seat!||||Let|mer- cy and|truth *|go,|go be-|
 G2 D2 F2 | D4 z2 | z2 z2 G2 | G2 F2 E2 | E2 D2 D2 | F4 z2 | E4 ^E2 | F2 ^C2 E2 | DE ^C4 | ^D4 D2 | %136
w: fore * thy|face,|let|mer- cy, let|mer- cy and|truth|go be-|fore, go be-|fore * thy|face. Let|
 E2 E2 E2 | D2 D2 D2 | E2 E2 ^D2 | E2 E2 z2 | E4 E2 | F4 F2 | G2 E4 | F4 F2 | G2 E4 | ^D4 z2 | z6 | %147
w: jus- tice and|judg- ment, let|jus- tice and|judg- ment|be the|pre- pa-|ra *|* tion|of thy|seat!||
 z2 z2 F2 | G2 E2 z2 | E2 ^D2 z2 | E2 E2 z2 | F4 G2 | F2 F3 F | E6 |[M:3/4] x6 | x6 | x6 | x6 | %158
w: Let|jus- tice,|judg- ment,|mer- cy,|truth, go|be- fore thy|face!|||||
 x6 | x6 | x6 | x6 | x6 |] x8 |[M:4/4] z8 | G3 G F2 D2 | E2 F2 GD G2 | G2 F2 G2 z2 | z8 | %169
w: |||||||Al- le- lu- ia,~al-|le- lu- ia, * al-|le- lu- ia,||
 z2 D2 G4- | G2 F2 E3 E | F2 z2 z4 | z DGB, CEDC | B,2 G2 F4 | z2 E2 D4 | z2 C2 E3 E | %176
w: al- le|* * * lu-|ia,|al- le- lu- ia, * * *|||al- le- lu-|
 F2 G2 G2 F2 | G2 G2 z2 G2 | E2 F2 z2 F2 | B,2 B2 z AGF | E2 E2 A3 A | F4 z4 | G3 G F2 ^G2 | %183
w: ia, al- le- lu-|ia, * *|||* al- le- lu-|ia,|al- le- lu- ia,~al-|
 A2 E2 A4- | A2 G2 F3 F | ^G2 A4 =G2- | G2 F2 E3 G | FD G4 FE | D2 F2 G3 F | E2 D2 D2 ^C2 | %190
w: le- lu- ia,|* al- le- lu-|ia, * *||||* al- le- lu-|
 D4 z2 F2 | G4 G4 | F4 z4 | z8 | z4 D3 D | C2 A,2 B,2 ^C2 | DA, D2- DG, C2- | C2 B,2 A,2 F2 | %198
w: ia, al-|le- lu-|ia,||al- le-|lu- ia,~al- le- lu-|ia, * * * * *|* * * al-|
 E2 D2 G3 A/G/ | F2 F2 E4 | F2 G2 E2 C2 | B,2 C2 D4 | E2 G2 G3 G | E4 D4- |"^__" D2 D2 E3 E | %205
w: le- lu- ia, * *||||* al- le- lu-|ia, *|* al- le- lu-|
 F4 z4 | z8 | G3 G F2 D2 | E4 A3 G |"^_____________________________________________________" F8 | %210
w: ia,||al- le- lu- ia,~al-|le- lu *|ia,|
 D8 | D2 F2 G2 E2 | F2 G2 E3 E | !fermata!D4 z2 D2 | D6 D2 | D16 |] %216
w: ||* al- le- lu-|ia, al-|le- lu-|ia.|
V:4
[K:C] z8 | z8 | z8 | z8 | z8 | z8 |[M:4/4] z8 | z8 | z8 | z8 | z8 |[M:4/4] z8 | z8 | z8 | z8 | z8 | %16
w: ||||||||||||||||
 z8 |[M:4/4] z8 | z8 | z8 | z8 | z8 ||[K:G][M:4/4][K:treble-8] z8 | z8 | z8 | G2 B2 c3 B | %26
w: |||||||||Let thy hand be|
 AD dc B>A G2 | A2 A2 B2 z2 | z2 ^c2 d2 A2 | d2 B2 e3 d | ^cB Ac d2 G2 | z8 | A2 F2 B3 A | %33
w: strength * * * * en- ed,|let thy hand|be strength- en'd,|and thy right hand|be * ex * al- ted,||let thy right hand|
 G2 c2 c2 d2 |"^__" A2 B2 A3 d | d2 A2 B2 G2 | d2 z2 z2 Be | d2 d2 z2 Be | d2 d2 z2 Be | %39
w: be ex- al *|* ted, be ex-|alt * * *|ed, let thy|right hand be ex-|alt- ed, be ex-|
 !wedge!d4 !wedge!G4 | !wedge!d4 !wedge!^c4 | d2 e2 d3 d | ee fe e4 | d2 z2 z4 | z8 | z4 d2 d2 | %46
w: alt *||* ed, let thy|right hand be ex- alt-|ed.||Let thy|
 d3 B c3 B/c/ | d2 A2 B2 B2 | A2 A2 A3 A | B2 G2 z2 B2 | B2 G2 z2 B2 | B2 G2 e2 B2 | ^c3 A A2 c2 | %53
w: hand be strength * *|* en'd, and thy|right hand be ex-|alt- ed, ex-|alt- ed, ex-|alt- ed, let thy|hand be strength *|
 ^d2 f2 e2 B2 | g2 e2 c4 | B2 B2 ^d2 B2 | e3 d ^c2 c2 | d4- dc Bd | e3 c B4 | B2 z2 A2 c2 | %60
w: ||* en'd, and thy|right hand be ex-|alt * * * *||ed, let thy|
 d4 B2 A2 | G3 G B2 e2 | d2 A2 B2 B2 | c3 c d2 A2 | B2 B2 z2 AA | B2 B2 z2 AA | B2 B2 z2 AA | %67
w: hand, let thy|hand be strength *|* en'd, and thy|right hand be ex-|alt- ed, let thy|right hand be ex-|alt- ed, be ex-|
 B4 f4 | d4 c4 | d2 d2 B2 c2 | d2 d2 z4 | z4 c3 c | d2 GB d3 c | B4 z4 | z8 | z8 |[M:4/4] z8 | z8 | %78
w: alt *||* ed, let thy|right hand|be ex-|alt * * * *|ed.|||||
 z8 | z8 |[M:4/4] z8 | z8 | z8 | z8 |] z6 |[M:3/4] z6 | z6 | z6 | z6 | z6 | z6 | z6 | z6 | z6 | %94
w: ||||||||||||||||
 z6 | z6 | z6 |[M:3/4][K:treble-8] z2 z2 B2 | c2 c2 c2 | cB B2 e2- | e2 d4 | c4 c2 | B4 e2- | %103
w: |||Let|jus- tice and|judg * ment be|* the|pre- pa-|ra *|
 e2 ^d4 | e4 c2 | B4 z2 | z2 z2 e2 | f2 B2 z2 | z2 z2 B2 | B2 ^c2 z2 | z2 z2 A2 | A2 B2 z2 | z6 | %113
w: * tion|of thy|seat!|Let|jus- tice|and|judg- ment,|and|judg- ment||
 z6 | B2 e2 z2 | e4 ^d2 | eB e3 e | B4 z2 | z6 | z2 z2 c2 | c2 B2 e2 | e2 ^d2 z2 | z6 | z6 | %124
w: |be the|pre- pa-|ra- tion of thy|seat!||Let|mer- cy and|truth *|||
 c4 z2 | d4 B2 | e2 d4 | B4 z2 | z6 | z2 z2 e2 | e2 d2 d2 | ^c4 z2 | G4 z2 | z2 ^c2 e2 | de ^c4 | %135
w: go,|go be-|fore thy|face,||let|mer- cy and|truth|go,|go be-|fore * thy|
 B4 ^d2 | e2 e2 e2 | d2 d2 d2 | c2 c2 A2 | B2 B2 z2 | B4 G2 | A4 d2 | e4 c2 | A2 B4 | e2 E4 | %145
w: face. Let|jus- tice and|judg- ment, let|jus- tice and|judg- ment|be the|pre- pa-|ra *|* tion|of thy|
 B4 z2 | z6 | z2 z2 d2 | d2 e2 z2 | e2 B2 z2 | B2 A2 z2 | B4 B2 | c2 B3 B | B6 |[M:3/4] z6 | z6 | %156
w: seat!||Let|jus- tice,|judg- ment,|mer- cy,|truth, go|be- fore thy|face!|||
 z6 | z6 | z6 | z6 | z6 | z6 | z6 |] z8 |[M:4/4][K:treble-8] z8 | z8 | z8 | z4 g3 g | f2 d2 e2 f2 | %169
w: |||||||||||Al- le-|lu- ia,~al- le- lu-|
 g2 d2 B2 G2 | A2 A2 B2 A2 | A2 d2 e3 e | d3 B cedc | B2 B2 c2 B2 | z2 G2 A2 B2 | z2 G2 e3 e | %176
w: ia, * * *|* al- le- lu-|ia, al- le- lu-|ia, * * * * *|||al- le- lu-|
 d2 d2 e2 d2 | d2 e2 z2 B2 | A2 f2 z2 ^c2 | ^d2 e2 z2 B2 | e2 A2 e3 e | B4 z4 | e3 e f2 d2 | %183
w: ia, al- le- lu-|ia, * *|||* al- le- lu-|ia,|al- le- lu- ia,~al-|
 e2 e2 e2 A2 | B2 B2 c2 B2 | B2 A2 =f2 e2- | e2 d2 B2 A2- | A2 G2 e2 d2- | d2 B2 e2 G2 | %189
w: le- lu- ia, *|* al- le- lu-|ia, * * *||||
 A2 d2 G3 G | A4 z2 d2 | e3 d cBAG | A2 d2 d2 g2 | gf e2 f2 d2 | G2 z2 d3 d | c2 A2 B2 ^c2 | %196
w: * al- le- lu-|ia, al-|le- lu- ia, * * *|* al- le- lu-|ia, * * * *|* al- le-|lu- ia,~al- le- lu-|
 dA d2- dG c2- | c2 B2 A3 B/A/ | G2 d2 B2 e2 | A2 d2 e4 | d4 c4 | G2 c4 B2 | c2 c2 c3 d | e4 A4 | %204
w: ia, * * * * *||* al- le- lu-|ia, * *|||* al- le- lu-|ia, *|
"^__" B2 B2 G2 e2 | A4 z4 | z4 d3 d | d2 B2 A2 G2 | %208
w: * al- le- lu-|ia,|al- le-|lu- ia,~al- le- lu-|
 g"^______________________________________________________________________________________"fed e2 c2 | %209
w: ia, * * * * *|
 d6 A2 | B6 c2 | d3 c B2 c2 | A2 G2 c3 B | !fermata!A4 z2 B2 | d4 c4 | B16 |] %216
w: |||* al- le- lu-|ia, al-|le- lu-|ia.|
V:5
[K:C] z8 | z8 | z8 | z8 | z8 | z8 |[M:4/4] z8 | z8 | z8 | z8 | z8 |[M:4/4] z8 | z8 | z8 | z8 | z8 | %16
w: ||||||||||||||||
w: ||||||||||||||||
 z8 |[M:4/4] z8 | z8 | z8 | z8 | z8 ||[K:G][M:4/4][K:bass] z8 | z8 | z8 |"^2 Bassi" G,2 B,2 C3 B, | %26
w: |||||||||Let thy hand be|
w: ||||||||||
"^This edition  Andrew Sims 2013" A,D, DC B,>A, G,2 |"^Tutti" D,2 F,2 G,3 F, | %28
w: strength * * * * en- ed,|Let thy hand be|
w: ||
 E,A,, A,G, F,>E, D,2 | z8 | z8 | G,2 E,2 A,3 G, | F,E, D,F, G,3 F, | E,C, E,G, C2 B,2 | %34
w: strength * * * * en- ed,|||and thy right hand|be * ex * al *||
w: ||||||
"^__" A,2 G,2 F,3 F, | G,2 F,2 E,4 | D,2 z2 z2 G,A, | D2 D,2 z2 G,A, | D2 D,2 z2 G,A, | %39
w: * ted, be ex-|alt * *|ed, let thy|right hand be ex-|alt- ed, be ex-|
w: |||||
 !wedge!D,4 !wedge!E,4 | !wedge!F,4 !wedge!G,4 | D2 ^C2 B,3 B, | A,^C DG, A,4 | D,2 z2 z4 | z8 | %45
w: alt *||* ed, let thy|right hand be ex- alt-|ed.||
w: ||||||
 z4 D2 C2 | B,2 G,2 C2 A,2 | D2 D,2 G,2 E,2 | A,3 G, F,E, D,F, | G,3 D, B,,G,, B,,D, | %50
w: Let thy|hand be strength *|* en'd, and thy|right hand be * ex *|alt * * * * *|
w: |||||
 G,3 D, B,,G,, B,,D, | G,2 G,,2 E,2 G,2 | A,3 G, F,2 A,2 | B,3 A, G,2 B,2 | C3 B, C2 A,2 | %55
w: |* ed, let thy|hand be strength *|||
w: |||||
 B,2 B,,2 z4 | z4 ^C2 A,2 | D3 C B,A, G,B, | CB, CA, B,4 | E,4 z4 | D,2 F,2 G,3 F, | %61
w: * en'd,|and thy|right hand be * ex *|alt * * * *|ed,|let thy hand, thy|
w: ||||||
 E,2 E,2 B,2 ^C2 | D2 D,2 G,2 E,2 | A,3 G, F,E, D,F, | G,2 G,,2 z2 C,D, | G,2 G,,2 z2 C,D, | %66
w: hand be strength *|* en'd, and thy|right hand be * ex *|alt- ed, let thy|right hand be ex-|
w: |||||
 G,2 G,,2 z2 C,D, | G,4 A,4 | B,4 C4 | B,2 F,2 G,2 A,2 | D,2 G,2 z4 | z4 E,3 A, | F,2 G,2 D,4 | %73
w: alt- ed, be ex-|alt *||* ed, let thy|right hand|be ex-|alt * *|
w: |||||||
 [G,,G,]4 z4 | z8 | z8 |[M:4/4] z8 | z8 | z8 | z8 |[M:4/4] z8 | z8 | z8 | z8 |] z6 |[M:3/4] z6 | %86
w: ed.|||||||||||||
w: |||||||||||||
 z6 | z6 | z6 | z6 | z6 | z6 | z6 | z6 | z6 | z6 | z6 |[M:3/4] z6 | z2 z2 E,2 | G,2 G,2 G,2 | %100
w: ||||||||||||Let|jus- tice and|
w: ||||||||||||||
 F,2 F,2 B,2- | B,2 A,4 | E,4 E,2 | B,4 B,2 | C4 A,2 | E,4 z2 | z2 z2 E,2 | E,2 ^D,2 z2 | %108
w: judg- ment be|* the|pre- pa-|ra- tion|of thy|seat!|Let|jus- tice|
w: ||||||||
 z2 z2 D,2 | D,2 ^C,2 z2 | z2 z2 C,2 | C,2 B,,2 z2 | z6 | z6 | G,2 ^G,2 z2 | A,2 B,4 | CB, C3 C | %117
w: and|judg- ment,|and|judg- ment|||be the|pre- pa-|ra- tion of thy|
w: |||||||||
 B,4 z2 | B,,4 B,,2 | B,,6- | B,,6 | B,,4 G,2 | G,2 F,2 E,2 | B,4 z2 | E,4 z2 | D,4 E,2 | C,2 D,4 | %127
w: seat!||||||truth|go,|go be-|fore thy|
w: |of thy|seat!||* Let|mer- cy and|||||
 G,4 G,2 | F,2 F,2 B,2 | B,2 ^A,2 z2 | z2 z2 B,,2 | F,4 z2 | G,4 G,2 | F,2 E,4 | F,4 F,2 | %135
w: face, let|mer- cy and|truth, *|and|truth|go be-|fore *|* thy|
w: ||||||||
 B,,4 B,2 | C2 C2 C2 | B,2 B,2 B,2 | A,2 A,2 A,2 | E,2 E,2 z2 | G,4 G,2 | F,4 F,2 | E,3 F, E,F, | %143
w: face. Let|jus- tice and|judg- ment, let|jus- tice and|judg- ment|be the|pre- pa-|ra * * *|
w: ||||||||
 D,4 D,2 | C,2 C,4 | B,,4 z2 | z6 | z2 z2 B,2 | G,2 ^G,2 z2 | A,2 B,2 z2 | C,2 ^C,2 z2 | ^D,4 E,2 | %152
w: * tion|of thy|seat!||Let|jus- tice,|judg- ment,|mer- cy,|truth, go|
w: |||||||||
 A,2 B,2 B,,2 | E,6 |[M:3/4] z6 | z6 | z6 | z6 | z6 | z6 | z6 | z6 | z6 |] z8 |[M:4/4] z8 | z8 | %166
w: be- fore thy|face!|||||||||||||
w: ||||||||||||||
 z8 | D3 D B,2 G,2 | A,2 B,2 C2 A,2 | B,3 A, G,F,E,D, | ^C,2 D,2 G,2 A,2 | D,2 D4 C2- | %172
w: |Al- le- lu- ia,~al-|le- lu- ia, al-|le- lu- ia, * * *|* al- le- lu-|ia, * *|
w: ||||||
 C2 B,2 A,2 D,2 | G,2 G,2 A,2 B,2 | z2 E,2 F,2 G,2 | z2 C,2 C3 C | C2 B,2 A,2 D,2 | %177
w: * al- le- lu-|ia, * * *||al- le- lu-|ia, al- le- lu-|
w: |||||
 G,2 E,2 F,2 G,2 | z2 F,2 G,2 A,2 | z2 G,2 A,2 B,2 | C2 C,2 C3 C | B,4 z4 | E3 E D2 B,2 | %183
w: ia, * * *|||* al- le- lu-|ia,|al- le- lu- ia,~al-|
w: ||||||
 C3 B, A,G,F,E, | ^D,2 E,2 A,2 B,2 | E,2 =F,2 D,2 E,2 | A,2 B,2 G,2 A,2 | D,2 E,2 A,,2 D,2 | %188
w: le- lu- ia, * * *|* al- le- lu-|ia, * * *|||
w: |||||
 G,,2 D,2 G,4- | G,2 F,2 E,3 E, | D,2 A,2 D4- | D2 CB, A,G,F,E, | D,2 F,2 G,2 B,,2 | C,2 C4 B,2 | %194
w: |* al- le- lu-|ia, * *||* al- le- lu-|ia, * al-|
w: ||||||
 E,3 E, D,4 | z8 | z8 | G,3 G, F,2 D,2 | E,2 F,2 G,2 E,2 | D,2 D4 C2- | C2 B,4 A,2 | E,4 D,4 | %202
w: le- lu- ia,|||al- le- lu- ia,~al-|le- lu- ia, *||||
w: ||||||||
 C,2 C2 _B,3 B, | A,2 E,2 F,2 D,2 |"^__" G,2 B,,2 C,3 C, | D,4 z4 | z4 D3 D | B,2 G,2 A,2 B,2 | %208
w: * al- le- lu-|ia, * * *|* al- le- lu-|ia,|al- le-|lu- ia,~al- le- lu-|
w: ||||||
 C3"^______________________________________________________________________________________" B, A,G,F,E, | %209
w: ia, * * * * *|
w: |
 D,8- | D,8 | D,8 | D,2 E,2 C,2 A,,2 | !fermata!D,4 z2 G,2 | D,6 D,2 | [G,,G,]16 |] %216
w: |||* al- le- lu-|ia, al-|le- lu-|ia.|
w: |||||||

